picto/arrival-right.svg

<svg class="color-immutable" width="24" height="24" viewBox="0 0 24 24" fill="none" xmlns="http://www.w3.org/2000/svg"><path d="M0 22.5V1.5C0 0.675 0.675 0 1.5 0H22.5C23.325 0 24 0.675 24 1.5V22.5C24 23.325 23.325 24 22.5 24H1.5C0.675 24 0 23.325 0 22.5Z" fill="#2D327D"/><path d="M20.769 21.185H3.14398C3.04198 21.185 2.95898 21.102 2.95898 21C2.95898 20.898 3.04198 20.815 3.14398 20.815H20.769C20.871 20.815 20.954 20.898 20.954 21C20.955 21.102 20.872 21.185 20.769 21.185Z" fill="white"/><path d="M20.979 13.874C20.811 13.57 20.599 13.293 20.351 13.051C19.848 12.561 19.211 12.23 18.52 12.1L12.761 11.085L9.426 3.379L7.961 3L7.664 10.187L4.998 9.717L4.436 7.69L3.281 7.54L2.888 10.83L7.534 13.488L18.649 15.448C19.189 15.543 19.742 15.532 20.278 15.417L20.277 15.418C20.481 15.374 20.667 15.271 20.812 15.123C21.137 14.789 21.205 14.281 20.979 13.874Z" fill="white"/><path d="M17.861 16.68C18.1377 16.68 18.362 16.4557 18.362 16.179C18.362 15.9023 18.1377 15.678 17.861 15.678C17.5843 15.678 17.36 15.9023 17.36 16.179C17.36 16.4557 17.5843 16.68 17.861 16.68Z" fill="white"/><path d="M11.481 15.555C11.7809 15.555 12.024 15.3119 12.024 15.012C12.024 14.7121 11.7809 14.469 11.481 14.469C11.1811 14.469 10.938 14.7121 10.938 15.012C10.938 15.3119 11.1811 15.555 11.481 15.555Z" fill="white"/><path d="M9.91702 15.279C10.2169 15.279 10.46 15.0359 10.46 14.736C10.46 14.4361 10.2169 14.193 9.91702 14.193C9.61713 14.193 9.37402 14.4361 9.37402 14.736C9.37402 15.0359 9.61713 15.279 9.91702 15.279Z" fill="white"/></svg>

<svg class="color-immutable" width="24" height="24" viewBox="0 0 24 24" fill="none" xmlns="http://www.w3.org/2000/svg"><g clip-path="url(#a)"><path d="M0 22.5v-21C0 .675.675 0 1.5 0h21c.825 0 1.5.675 1.5 1.5v21c0 .825-.675 1.5-1.5 1.5h-21C.675 24 0 23.325 0 22.5Z" fill="#2D327D"/><path d="M20.769 21.185H3.144a.185.185 0 0 1 0-.37h17.625a.185.185 0 0 1 0 .37ZM20.979 13.874A3.57 3.57 0 0 0 18.52 12.1l-5.759-1.015-3.335-7.706L7.961 3l-.297 7.187-2.666-.47-.562-2.027-1.155-.15-.393 3.29 4.646 2.658 11.115 1.96c.54.095 1.093.084 1.629-.031l-.001.001a1.057 1.057 0 0 0 .702-1.544ZM17.861 16.68a.501.501 0 1 0 0-1.002.501.501 0 0 0 0 1.002ZM11.481 15.555a.543.543 0 1 0 0-1.086.543.543 0 0 0 0 1.086ZM9.917 15.279a.543.543 0 1 0 0-1.086.543.543 0 0 0 0 1.086Z" fill="#fff"/></g><defs><clipPath id="a"><path fill="#fff" d="M0 0h24v24H0z"/></clipPath></defs></svg>
